src/scalable/mimetypes/text-x-c++.svg

<?xml version="1.0" encoding="UTF-8" standalone="no"?>
<svg
   xmlns:dc="http://purl.org/dc/elements/1.1/"
   xmlns:cc="http://creativecommons.org/ns#"
   xmlns:rdf="http://www.w3.org/1999/02/22-rdf-syntax-ns#"
   xmlns:svg="http://www.w3.org/2000/svg"
   xmlns="http://www.w3.org/2000/svg"
   xmlns:xlink="http://www.w3.org/1999/xlink"
   xmlns:sodipodi="http://sodipodi.sourceforge.net/DTD/sodipodi-0.dtd"
   xmlns:inkscape="http://www.inkscape.org/namespaces/inkscape"
   width="48px"
   height="48px"
   viewBox="0 0 48 48"
   version="1.1"
   id="svg19"
   sodipodi:docname="text-x-c++.svg"
   inkscape:version="0.92.2 2405546, 2018-03-11">
  <metadata
     id="metadata23">
    <rdf:RDF>
      <cc:Work
         rdf:about="">
        <dc:format>image/svg+xml</dc:format>
        <dc:type
           rdf:resource="http://purl.org/dc/dcmitype/StillImage" />
      </cc:Work>
    </rdf:RDF>
  </metadata>
  <sodipodi:namedview
     pagecolor="#ffffff"
     bordercolor="#666666"
     borderopacity="1"
     objecttolerance="10"
     gridtolerance="10"
     guidetolerance="10"
     inkscape:pageopacity="0"
     inkscape:pageshadow="2"
     inkscape:window-width="730"
     inkscape:window-height="480"
     id="namedview21"
     showgrid="false"
     inkscape:zoom="4.9166667"
     inkscape:cx="24"
     inkscape:cy="24"
     inkscape:window-x="760"
     inkscape:window-y="275"
     inkscape:window-maximized="0"
     inkscape:current-layer="svg19" />
  <!-- Generator: Sketch 41.2 (35397) - http://www.bohemiancoding.com/sketch -->
  <title
     id="title2">text-x-c++</title>
  <desc
     id="desc4">Created with Sketch.</desc>
  <g
     id="g829">
    <rect
       rx="2"
       ry="1.9047618"
       y="4"
       x="6"
       height="40"
       width="36"
       id="rect834"
       style="opacity:1;fill:#ef6c00;fill-opacity:1;stroke:none;stroke-width:0.92582005;stroke-linecap:round;stroke-linejoin:round;stroke-miterlimit:4;stroke-dasharray:none;stroke-opacity:0.05882353;paint-order:markers stroke fill" />
    <path
       inkscape:connector-curvature="0"
       id="rect866"
       d="M 42,17.242188 A 40,40 0 0 1 23.494141,44 H 40 c 1.108,0 2,-0.849059 2,-1.904297 z"
       style="opacity:0.15;fill:url(#linearGradient877);fill-opacity:1;stroke:none;stroke-width:0.92582005;stroke-linecap:round;stroke-linejoin:round;stroke-miterlimit:4;stroke-dasharray:none;stroke-opacity:0.05882353;paint-order:markers stroke fill" />
  </g>
  <defs
     id="defs11">
    <linearGradient
       inkscape:collect="always"
       xlink:href="#linearGradient875"
       id="linearGradient877"
       x1="32.74707"
       y1="44"
       x2="32.74707"
       y2="17.242188"
       gradientUnits="userSpaceOnUse" />
    <linearGradient
       inkscape:collect="always"
       id="linearGradient875">
      <stop
         style="stop-color:#000000;stop-opacity:1;"
         offset="0"
         id="stop871" />
      <stop
         style="stop-color:#000000;stop-opacity:0;"
         offset="1"
         id="stop873" />
    </linearGradient>
  </defs>
  <g
     id="Page-1"
     stroke="none"
     stroke-width="1"
     fill="none"
     fill-rule="evenodd">
    <g
       id="text-x-c++">
      <path
         d="M24.0595703,26.9306641 C24.0595703,27.3408224 23.9584971,27.7846656 23.7563477,28.262207 C23.5541982,28.7397485 23.2363303,29.2084938 22.8027344,29.668457 C22.3691385,30.1284203 21.8154331,30.5019517 21.1416016,30.7890625 C20.4677701,31.0761733 19.6826217,31.2197266 18.7861328,31.2197266 C18.1064419,31.2197266 17.488284,31.1552741 16.9316406,31.0263672 C16.3749972,30.8974603 15.8696312,30.6967787 15.4155273,30.4243164 C14.9614235,30.1518541 14.5439472,29.792971 14.1630859,29.3476562 C13.8232405,28.9433574 13.5332043,28.4907252 13.2929688,27.9897461 C13.0527332,27.488767 12.8725592,26.9541044 12.7524414,26.3857422 C12.6323236,25.81738 12.5722656,25.2138704 12.5722656,24.5751953 C12.5722656,23.5380808 12.723143,22.6093791 13.0249023,21.7890625 C13.3266617,20.9687459 13.7587862,20.2670928 14.3212891,19.684082 C14.8837919,19.1010713 15.542965,18.6572281 16.2988281,18.3525391 C17.0546913,18.04785 17.8603473,17.8955078 18.7158203,17.8955078 C19.7587943,17.8955078 20.6874959,18.1035135 21.5019531,18.5195312 C22.3164103,18.935549 22.9404275,19.449704 23.3740234,20.0620117 C23.8076194,20.6743195 24.0244141,21.252927 24.0244141,21.7978516 C24.0244141,22.0966812 23.9189464,22.3603504 23.7080078,22.5888672 C23.4970693,22.817384 23.242189,22.9316406 22.9433594,22.9316406 C22.6093733,22.9316406 22.3588876,22.8525399 22.1918945,22.6943359 C22.0249015,22.536132 21.8388682,22.2636738 21.6337891,21.8769531 C21.2939436,21.2382781 20.8940453,20.7607438 20.434082,20.4443359 C19.9741188,20.1279281 19.4072299,19.9697266 18.7333984,19.9697266 C17.6611275,19.9697266 16.8071321,20.3769491 16.1713867,21.1914062 C15.5356414,22.0058634 15.2177734,23.1630784 15.2177734,24.6630859 C15.2177734,25.6650441 15.358397,26.4985318 15.6396484,27.1635742 C15.9208998,27.8286166 16.3193334,28.3251937 16.8349609,28.6533203 C17.3505885,28.981447 17.9540981,29.1455078 18.6455078,29.1455078 C19.3955116,29.1455078 20.0297826,28.9594745 20.5483398,28.5874023 C21.0668971,28.2153302 21.4580065,27.6689489 21.7216797,26.9482422 C21.8330084,26.6083967 21.9707023,26.331544 22.1347656,26.1176758 C22.2988289,25.9038075 22.5624982,25.796875 22.9257812,25.796875 C23.2363297,25.796875 23.5029286,25.9052724 23.7255859,26.1220703 C23.9482433,26.3388683 24.0595703,26.6083968 24.0595703,26.9306641 Z"
         id="C"
         fill="#FFFFFF" />
      <path
         d="M28.2558594,27.7636719 L26.7441406,27.7636719 L26.7441406,25.53125 L24.5,25.53125 L24.5,23.9960938 L26.7441406,23.9960938 L26.7441406,21.7519531 L28.2558594,21.7519531 L28.2558594,23.9960938 L30.5117188,23.9960938 L30.5117188,25.53125 L28.2558594,25.53125 L28.2558594,27.7636719 Z M35.2519531,27.7636719 L33.7402344,27.7636719 L33.7402344,25.53125 L31.4960938,25.53125 L31.4960938,23.9960938 L33.7402344,23.9960938 L33.7402344,21.7519531 L35.2519531,21.7519531 L35.2519531,23.9960938 L37.5078125,23.9960938 L37.5078125,25.53125 L35.2519531,25.53125 L35.2519531,27.7636719 Z"
         id="++"
         fill="#FFFFFF" />
    </g>
  </g>
</svg>

<svg xmlns="http://www.w3.org/2000/svg" xmlns:xlink="http://www.w3.org/1999/xlink" width="48" height="48"><g paint-order="markers stroke fill"><rect rx="2" ry="1.905" y="4" x="6" height="40" width="36" fill="#ef6c00"/><path d="M42 17.242A40 40 0 0 1 23.494 44H40c1.108 0 2-.85 2-1.904z" opacity=".15" fill="url(#a)"/></g><defs><linearGradient xlink:href="#b" id="a" x1="32.747" y1="44" x2="32.747" y2="17.242" gradientUnits="userSpaceOnUse"/><linearGradient id="b"><stop offset="0"/><stop offset="1" stop-opacity="0"/></linearGradient></defs><g fill="#FFF" fill-rule="evenodd"><path d="M24.06 26.93c0 .41-.102.855-.304 1.332-.202.478-.52.946-.953 1.406-.434.46-.988.834-1.661 1.121-.674.287-1.46.43-2.356.43-.68 0-1.298-.064-1.854-.193a5.21 5.21 0 0 1-1.516-.602 5.115 5.115 0 0 1-1.253-1.076 6.398 6.398 0 0 1-.87-1.358 7.08 7.08 0 0 1-.54-1.604 8.743 8.743 0 0 1-.18-1.81c0-1.038.15-1.967.452-2.787a5.943 5.943 0 0 1 1.296-2.105 5.654 5.654 0 0 1 1.978-1.331 6.403 6.403 0 0 1 2.417-.457c1.043 0 1.971.208 2.786.624.814.416 1.438.93 1.872 1.542.434.612.65 1.19.65 1.736 0 .299-.105.562-.316.79-.21.23-.466.344-.765.344-.334 0-.584-.08-.751-.238-.167-.158-.353-.43-.558-.817-.34-.639-.74-1.116-1.2-1.433-.46-.316-1.027-.474-1.7-.474-1.073 0-1.927.407-2.563 1.221-.635.815-.953 1.972-.953 3.472 0 1.002.14 1.836.422 2.5.28.666.68 1.162 1.195 1.49.516.328 1.12.493 1.81.493.75 0 1.385-.187 1.903-.559.519-.372.91-.918 1.174-1.639.111-.34.249-.616.413-.83.164-.214.427-.321.79-.321.311 0 .578.108.8.325.223.217.335.486.335.809zM28.256 27.764h-1.512V25.53H24.5v-1.535h2.244v-2.244h1.512v2.244h2.256v1.535h-2.256v2.233zm6.996 0H33.74V25.53h-2.244v-1.535h2.244v-2.244h1.512v2.244h2.256v1.535h-2.256v2.233z"/></g></svg>
